packages/foundations/assets/icons/functional/images/audio & video/pause.svg

<svg xmlns="http://www.w3.org/2000/svg" width="32" height="32" fill="none"><path fill="#1A1C1F" fill-rule="evenodd" d="M12.72 8.045c-.213.07-.434.236-.562.423l-.131.191v14.682l.128.188c.514.75 1.625.55 1.813-.327.082-.383.083-14.019.001-14.401a1.2 1.2 0 0 0-.198-.437c-.244-.29-.708-.43-1.051-.319m5.864.052a.98.98 0 0 0-.553.704c-.082.382-.081 14.018.001 14.401.188.877 1.299 1.077 1.813.327l.128-.188V8.659l-.127-.186c-.283-.414-.833-.577-1.262-.376"/></svg>

<svg width="32" height="32" viewBox="0 0 32 32" fill="none" xmlns="http://www.w3.org/2000/svg"><path d="M12.720 8.045 C 12.507 8.115,12.286 8.281,12.158 8.468 L 12.027 8.659 12.027 16.000 L 12.027 23.341 12.155 23.529 C 12.669 24.279,13.780 24.079,13.968 23.202 C 14.050 22.819,14.051 9.183,13.969 8.801 C 13.937 8.652,13.848 8.456,13.771 8.364 C 13.527 8.074,13.063 7.934,12.720 8.045 M18.584 8.097 C 18.291 8.235,18.101 8.477,18.031 8.801 C 17.949 9.183,17.950 22.819,18.032 23.202 C 18.220 24.079,19.331 24.279,19.845 23.529 L 19.973 23.341 19.973 16.000 L 19.973 8.659 19.846 8.473 C 19.563 8.059,19.013 7.896,18.584 8.097 " fill="#1A1C1F" stroke="none" fill-rule="evenodd"></path></svg>
